X: 82
T: No_179.krn
N: Derived from No_179.krn
%%abc-version 2.0
%%abcx-abcm2ps-target-version 5.9.1 (29 Sep 2008)
%%abc-creator hum2abc beta
%%abcx-conversion-date 2019/03/15 08:29:13
%%humdrum-veritas 3491284731
%%humdrum-veritas-data 3905833728
%%linebreak <none>
%%barnumbers 0
L: 1/8
M: 3/4
%%staves {1 2}
V: 1 clef=bass
V: 2 clef=bass
K: C
[V:1] [K:clef=bass][M:3/4]EE EC CA, | 
[V:2] [K:clef=bass][M:3/4]z2z2z G,, | 
[V:1] D/C3/ CC CA, | 
[V:2] (3!accent!G,, z G,, (3!accent!G,, z G,, (3!accent!G,, z G,, | 
[V:1] A,A,/E,/ A,A, A,E, | 
[V:2] z6 | 
[V:1] A,A,/E,/ G,G,G,2 | 
[V:2] z6 | 
[V:1] E,E,E,4 | 
[V:2] z6 | 
[V:1] E,2z4 |]  
[V:2] z6 |]  



